X:1
T:Title
%%score { ( 1 2 5 ) | ( 3 4 ) }
L:1/8
Q:1/4=100
M:6/8
K:D
V:1 treble nm="Grand Piano"
V:2 treble 
V:5 treble 
V:3 bass 
V:4 bass 
V:1
 .A3 .A3 | z3 .A3 | .c3 z3 | A6 | z3 .B3 | .c3 .B3 | z3 .B3 |[M:5/8] [A,CEA]-[A,CEA]- [A,CEA]3 | %8
w: J.~E.~Gould *||||||||
[M:1/8] A |[M:3/4] AA AA AA | GF G F2 F | [DF][DF] [DF]E DE | F4- FF | GG G[CG] [CF][CE] | %14
w: ||||||
[M:7/8] DF[GB] [FA]3 A |[M:3/4] A2 [Fd]c B[Ec] | [Fd]6 | [Fd]2 z .[Gd]3 | [Fd]4- [Fd]A | AB cc de | %20
w: ||||||
 [Fd]6 |] %21
w: |
V:2
 F[DF][DF] F[DF][DF] | [DF][DEFG][D=F^F^G] F[DF][DFd] | G[CG][CEG] [CE][CEG][CGB] | %3
 F[DF]F- F[DF][DF] | [DF][DF][DF] D[DF][DFB] | E[EF][EF] D[DF][DFd] | %6
 [Ec][CEc][CEc] [^G,DE][DE][DEB] |[M:5/8] x5 |[M:1/8] x |[M:3/4] x6 | x6 | x6 | x6 | x6 | %14
[M:7/8] x7 |[M:3/4] x6 | x6 | x6 | x6 | x6 | x6 |] %21
V:3
 z A,A, z A,A, | z A,A, z A,A, | z A,A, z A,A, | z A,A, z A,A, | z B,B, z B,B, | z ^A,A, z B,B, | %6
 z A,A, z ^G,G, |[M:5/8] A,,-A,,- A,,3 |[M:1/8] A, |[M:3/4] A,A, A,A, A,A, | G,F, G, F,2 F, | %11
 [B,,B,][B,,B,] [B,,B,][G,B,D] [G,B,][G,B,C] | [F,^A,C]4- [F,A,C]F, | %13
 [E,B,E][E,B,E] [E,B,D][A,,A,] [A,,A,][A,,G,] |[M:7/8] [D,F,][D,A,D][D,D] [D,D]3 [G,CE] | %15
[M:3/4] [F,D]2 [D,A,][A,E] [A,D][A,,A,] | [D,A,]6 | [D,A,]2 z .[D,B,]3 | %18
 [D,A,]4- [D,A,][K:treble][A,C] | [A,C][A,D] [A,E][A,E] [A,F][A,G] | [D,A,]6 |] %21
V:4
 D,3 D,3 | D,3 D,3 | E,3 A,,3 | D,3 D,3 | B,,3 B,,3 | F,3 B,,3 | E,3 E,,3 |[M:5/8] x5 |[M:1/8] x | %9
[M:3/4] x6 | x6 | x6 | x6 | x6 |[M:7/8] x7 |[M:3/4] x6 | x6 | x6 | x5[K:treble] x | x6 | x6 |] %21
V:5
 x6 | x6 | x6 | z2 D z3 | x6 | x6 | x6 |[M:5/8] x5 |[M:1/8] x |[M:3/4] x6 | x6 | x6 | x6 | x6 | %14
[M:7/8] x7 |[M:3/4] x6 | x6 | x6 | x6 | x6 | x6 |] %21

